assets/icons/ICON_WALK.svg

<svg fill="#083A9B" version="1.1" id="Layer_1" xmlns="http://www.w3.org/2000/svg" xmlns:xlink="http://www.w3.org/1999/xlink" x="0px" y="0px"
	 width="24px" height="24px" viewBox="0 0 24 24" enable-background="new 0 0 24 24" xml:space="preserve">
<path d="M13.5,5.5c1.1,0,2-0.9,2-2s-0.9-2-2-2c-1.1,0-2,0.9-2,2S12.4,5.5,13.5,5.5z M9.8,8.9L7,23h2.1l1.8-8l2.1,2v6
	h2v-7.5l-2.1-2l0.6-3C14.8,12,16.8,13,19,13v-2c-1.9,0-3.5-1-4.3-2.4l-1-1.6c-0.4-0.6-1-1-1.7-1c-0.3,0-0.5,0.1-0.8,0.1L6,8.3V13h2
	V9.6L9.8,8.9z"/>
</svg>

<svg width="24" height="24" viewBox="0 0 24 24" fill="none" xmlns="http://www.w3.org/2000/svg">
<path d="M13.5 5.5C14.6 5.5 15.5 4.6 15.5 3.5C15.5 2.4 14.6 1.5 13.5 1.5C12.4 1.5 11.5 2.4 11.5 3.5C11.5 4.6 12.4 5.5 13.5 5.5ZM9.8 8.9L7 23H9.1L10.9 15L13 17V23H15V15.5L12.9 13.5L13.5 10.5C14.8 12 16.8 13 19 13V11C17.1 11 15.5 10 14.7 8.6L13.7 7C13.3 6.4 12.7 6 12 6C11.7 6 11.5 6.1 11.2 6.1L6 8.3V13H8V9.6L9.8 8.9Z" fill="#083A9B"/>
</svg>
